// Matrix Math Node by Saul Espinosa for Redshift
// This file is licensed under Apache 2.0 license

shader enums
(
    matrix input = matrix(1, 1, 1, 1,
1, 1, 1, 1,
1, 1, 1, 1,
1, 1, 1, 1),


    output color outColor = 1
    [[ string label = "Out Color" ]]
)
{
    outColor = 1;
}
